Yaru++/actions/symbolic/edit-copy-symbolic.svg

<svg height="16" width="16" xmlns="http://www.w3.org/2000/svg">
  <path d="m1.98 1.98v11.02h1.02v-10h8v1h-6.996v11h9.996v-11h-2v-1h.012v-1.02h-8.53zm3.026 3.02h7.994v9h-7.994zm.994 1v1h6.02v-1zm0 2v1h6.02v-1zm-.008 2v1h3.008v-1z" fill="#808080"/>
</svg>

<svg height="16" width="16" xmlns="http://www.w3.org/2000/svg">
    <path d="M1.98 1.98V13H3V3h8v1H4.004v11H14V4h-2V3h.012V1.98h-8.53zM5.006 5H13v9H5.006zM6 6v1h6.02V6zm0 2v1h6.02V8zm-.008 2v1H9v-1z" fill="gray" overflow="visible" style="marker:none" color="#000"/>
</svg>
